X: 1
T: Sean Ryan's
M: 6/8
L: 1/8
R: jig
K: Ador
|:cBA BAG|AGE DBG|~A3 EDB|DEG AGE|
c2A B/2c/2dB|AGE DBG|~A2 E EDE|DBG A2 B:|
|:cBA ~a3|bag edB|GBd ~g3|GBd cBA|
cBc dcd|ede gab|age dBG|EFG A2 B:|
